images/client3.svg

<svg width="106" height="60" viewBox="0 0 106 60" fill="none" xmlns="http://www.w3.org/2000/svg">
<path d="M36.4063 49.1014C36.4222 49.1018 36.4379 49.1049 36.4524 49.1106C36.4669 49.1163 36.4799 49.1245 36.4908 49.1346L36.7089 49.3431C36.5396 49.5118 36.3304 49.6468 36.0955 49.7388C35.8204 49.8391 35.5239 49.8875 35.2257 49.8809C34.9455 49.8859 34.6671 49.8408 34.4078 49.7482C34.1739 49.6632 33.9638 49.5356 33.7916 49.3739C33.6159 49.2062 33.4805 49.0096 33.3935 48.7958C33.2982 48.5574 33.2512 48.3065 33.2545 48.0542C33.2506 47.8003 33.3015 47.548 33.4044 47.3103C33.4997 47.0951 33.6433 46.8986 33.827 46.7322C34.0132 46.5691 34.2359 46.4408 34.4814 46.3555C34.7499 46.265 35.0359 46.22 35.3239 46.2228C35.5914 46.2172 35.8575 46.2582 36.1064 46.3436C36.3223 46.425 36.5206 46.538 36.6926 46.6777L36.5099 46.9004C36.4973 46.9161 36.4816 46.9297 36.4635 46.9407C36.442 46.9535 36.4159 46.9594 36.3899 46.9573C36.3616 46.9556 36.3343 46.9474 36.3109 46.9336L36.2127 46.8743L36.0764 46.7985C36.0175 46.7704 35.9565 46.7458 35.8937 46.7251C35.8128 46.6999 35.7299 46.6801 35.6456 46.6659C35.5386 46.6487 35.4299 46.6408 35.3211 46.6422C35.1138 46.6399 34.908 46.6737 34.7159 46.7417C34.5367 46.8046 34.375 46.8999 34.2415 47.0212C34.1055 47.1503 34.0007 47.3018 33.9334 47.4667C33.8566 47.6553 33.8187 47.8542 33.8216 48.0542C33.8183 48.2574 33.8561 48.4595 33.9334 48.6513C33.9999 48.8147 34.1027 48.9653 34.236 49.0943C34.3609 49.2146 34.5157 49.3086 34.6886 49.3692C34.8666 49.4333 35.0576 49.4655 35.2503 49.4639C35.3615 49.4654 35.4728 49.4591 35.5829 49.445C35.7627 49.4259 35.9351 49.3716 36.0873 49.2862C36.1636 49.2425 36.2356 49.1934 36.3027 49.1393C36.3307 49.1161 36.3676 49.1026 36.4063 49.1014Z" fill="#AFB1B8"/>
<path d="M42.7044 48.0538C42.7078 48.3052 42.6579 48.5549 42.5572 48.7906C42.4684 49.0043 42.3284 49.1993 42.1465 49.3626C41.9646 49.526 41.745 49.654 41.5021 49.7382C40.9683 49.9151 40.3782 49.9151 39.8444 49.7382C39.603 49.6527 39.3848 49.5244 39.2037 49.3615C39.0219 49.1952 38.8809 48.9986 38.7893 48.7835C38.5929 48.3063 38.5929 47.7847 38.7893 47.3076C38.8823 47.0923 39.0231 46.8951 39.2037 46.7271C39.3864 46.5694 39.6045 46.446 39.8444 46.3647C40.3775 46.1846 40.969 46.1846 41.5021 46.3647C41.7443 46.4502 41.9634 46.5784 42.1455 46.7414C42.325 46.906 42.465 47.1001 42.5572 47.3123C42.6582 47.5495 42.7081 47.8009 42.7044 48.0538ZM42.1319 48.0538C42.1362 47.8527 42.1011 47.6525 42.0283 47.4615C41.9672 47.298 41.8679 47.1472 41.7366 47.0185C41.6087 46.8968 41.4513 46.8013 41.2758 46.739C40.8879 46.6095 40.4586 46.6095 40.0707 46.739C39.8952 46.8013 39.7378 46.8968 39.6099 47.0185C39.4768 47.1464 39.3764 47.2974 39.3155 47.4615C39.1768 47.8472 39.1768 48.2604 39.3155 48.6461C39.377 48.81 39.4773 48.9609 39.6099 49.0891C39.7379 49.2101 39.8953 49.3048 40.0707 49.3663C40.4593 49.4925 40.8872 49.4925 41.2758 49.3663C41.4512 49.3048 41.6086 49.2101 41.7366 49.0891C41.8673 48.9601 41.9665 48.8094 42.0283 48.6461C42.1015 48.4552 42.1365 48.2549 42.1319 48.0538Z" fill="#AFB1B8"/>
<path d="M47.0013 48.6747L47.0586 48.8074C47.0804 48.76 47.0995 48.7173 47.1213 48.6747C47.1421 48.6302 47.1657 48.5867 47.1922 48.5444L48.5854 46.3438C48.6127 46.3059 48.6372 46.2823 48.6645 46.2751C48.7015 46.2653 48.7403 46.2613 48.779 46.2633H49.1907V49.8425H48.7026V47.2108C48.7026 47.1776 48.7026 47.1397 48.7026 47.0995C48.7 47.0585 48.7 47.0173 48.7026 46.9763L47.3012 49.2077C47.2834 49.2411 47.255 49.2694 47.2192 49.2891C47.1834 49.3089 47.1418 49.3192 47.0995 49.319H47.0204C46.9779 49.3195 46.9362 49.3093 46.9004 49.2895C46.8646 49.2697 46.8362 49.2413 46.8186 49.2077L45.3763 46.9621C45.3763 47.0047 45.3763 47.0474 45.3763 47.09C45.3763 47.1326 45.3763 47.1705 45.3763 47.2037V49.8354H44.9047V46.2633H45.3164C45.355 46.2613 45.3938 46.2653 45.4309 46.2751C45.4647 46.2897 45.4916 46.314 45.5072 46.3438L46.9304 48.5468C46.9584 48.5875 46.9821 48.6303 47.0013 48.6747Z" fill="#AFB1B8"/>
<path d="M52.2444 48.4969V49.8376H51.6991V46.2632H52.9151C53.1446 46.2594 53.3735 46.2857 53.594 46.3413C53.7705 46.3848 53.9341 46.4607 54.0739 46.564C54.195 46.6608 54.2883 46.7808 54.3465 46.9146C54.4109 47.0604 54.4423 47.2156 54.4392 47.3717C54.4416 47.5285 54.4073 47.684 54.3383 47.8289C54.2728 47.966 54.1721 48.0884 54.0439 48.1866C53.904 48.2941 53.7395 48.3749 53.5613 48.4234C53.349 48.4824 53.127 48.5104 52.9042 48.5063L52.2444 48.4969ZM52.2444 48.1131H52.9042C53.0475 48.1148 53.1902 48.0964 53.3268 48.0587C53.4395 48.0257 53.5433 47.9733 53.6322 47.9047C53.7141 47.8391 53.7775 47.7581 53.8176 47.6678C53.8622 47.5723 53.8844 47.4701 53.883 47.367C53.8893 47.2676 53.8707 47.1683 53.8283 47.0758C53.7859 46.9834 53.7208 46.9 53.6376 46.8317C53.4293 46.6904 53.1677 46.6219 52.9042 46.6398H52.2444V48.1131Z" fill="#AFB1B8"/>
<path d="M59.5731 49.8424H59.1423C59.0991 49.8438 59.0566 49.8321 59.0223 49.8092C58.9914 49.7869 58.9671 49.7585 58.9514 49.7263L58.5806 48.8616H56.7185L56.334 49.7263C56.3199 49.7579 56.2964 49.7857 56.2659 49.8069C56.2312 49.8311 56.1877 49.8437 56.1432 49.8424H55.7124L57.3483 46.2628H57.9154L59.5731 49.8424ZM56.8739 48.5134H58.4116L57.7627 47.0564C57.7131 46.9468 57.6721 46.8344 57.64 46.72L57.5773 46.9072C57.5582 46.964 57.5364 47.0162 57.5173 47.0588L56.8739 48.5134Z" fill="#AFB1B8"/>
<path d="M61.9288 46.2795C61.9614 46.295 61.9894 46.3169 62.0106 46.3434L64.3962 49.0417C64.3962 48.9991 64.3962 48.9564 64.3962 48.9161C64.3962 48.8759 64.3962 48.8356 64.3962 48.7977V46.2629H64.8843V49.8424H64.6116C64.5729 49.8434 64.5345 49.8361 64.4998 49.8211C64.4662 49.804 64.4365 49.7815 64.4126 49.7548L62.0297 47.0589C62.0323 47.0999 62.0323 47.141 62.0297 47.1821C62.0297 47.2223 62.0297 47.2579 62.0297 47.291V49.8424H61.5416V46.2629H61.8306C61.8644 46.2621 61.8979 46.2677 61.9288 46.2795Z" fill="#AFB1B8"/>
<path d="M68.9031 48.4188V49.8402H68.3578V48.4188L66.8501 46.2631H67.3381C67.3802 46.2609 67.4218 46.2718 67.4554 46.2938C67.4851 46.3168 67.51 46.3441 67.529 46.3744L68.4724 47.765C68.5105 47.8242 68.5432 47.8787 68.5705 47.9308C68.5978 47.9829 68.6196 48.0327 68.6387 48.0824L68.7096 47.9284C68.736 47.8721 68.767 47.8175 68.8023 47.765L69.732 46.3649C69.7516 46.337 69.7754 46.3115 69.8029 46.2891C69.8352 46.2646 69.8772 46.2518 69.9201 46.2536H70.4136L68.9031 48.4188Z" fill="#AFB1B8"/>
<path d="M46.7314 40.2561C46.9686 40.2822 47.2086 40.3035 47.4512 40.3225C51.1301 38.8926 54.2422 36.5523 56.3987 33.5942C58.5552 30.636 59.6603 27.1912 59.5759 23.6904L55.5216 20.1678C56.346 23.8951 55.9604 27.7482 54.408 31.2959C52.8555 34.8437 50.1976 37.9461 46.7314 40.2561Z" fill="#AFB1B8"/>
<path d="M45.2837 40.0923L45.3928 40.1112C49.0966 37.8094 51.9205 34.5951 53.4993 30.8839C55.078 27.1727 55.3389 23.1353 54.2483 19.2939L48.4737 14.2767C50.8094 18.4008 51.7495 23.0162 51.1848 27.5862C50.6201 32.1562 48.5737 36.493 45.2837 40.0923Z" fill="#AFB1B8"/>
<path d="M64.868 27.8265C63.8869 31.6731 61.5042 35.1423 58.0736 37.7189C57.0717 38.4755 55.991 39.1496 54.8455 39.7324C57.6389 39.019 60.2065 37.7578 62.3503 36.046C64.494 34.3341 66.1567 32.2174 67.21 29.859L64.868 27.8265Z" fill="#AFB1B8"/>
<path d="M63.949 27.2601L60.6146 24.3629C60.5508 27.666 59.47 30.894 57.4845 33.7114C55.499 36.5287 52.6813 38.8327 49.3242 40.3837H49.3406C50.0887 40.3835 50.8362 40.3447 51.579 40.2676C54.7164 39.155 57.488 37.3849 59.6464 35.1152C61.8049 32.8455 63.283 30.1469 63.949 27.2601Z" fill="#AFB1B8"/>
<path d="M45.7663 12.1609L41.7883 8.69995C38.2322 9.89391 35.1738 11.9928 33.0134 14.722C30.8529 17.4512 29.6912 20.6835 29.6801 23.9959V23.9959C29.6934 27.656 31.1113 31.2077 33.7093 34.0888C36.3073 36.9699 39.9371 39.016 44.0241 39.903C47.6725 36.041 49.8086 31.2687 50.1219 26.2798C50.4352 21.2908 48.9094 16.3449 45.7663 12.1609Z" fill="#AFB1B8"/>
<path d="M73.1401 26.7273C73.1257 22.3848 71.1339 18.2238 67.5997 15.1532C64.0656 12.0826 59.2764 10.352 54.2784 10.3395C51.9688 10.3374 49.6789 10.7077 47.5249 11.4315L71.8805 32.5926C72.7144 30.7221 73.1415 28.7333 73.1401 26.7273Z" fill="#AFB1B8"/>
</svg>

<svg width="106" height="60" fill="none" xmlns="http://www.w3.org/2000/svg"><g filter="url(#a)" fill="#AFB1B8"><path d="M36.406 49.101c.016 0 .032.004.046.01a.121.121 0 0 1 .039.024l.218.208c-.17.169-.379.304-.614.396a2.39 2.39 0 0 1-.87.142c-.28.005-.558-.04-.817-.133a1.794 1.794 0 0 1-.617-.374 1.674 1.674 0 0 1-.397-.578 1.926 1.926 0 0 1-.14-.742 1.724 1.724 0 0 1 .573-1.322c.186-.163.409-.291.654-.377.269-.09.555-.135.843-.132a2.27 2.27 0 0 1 .782.12c.216.082.414.195.587.335l-.183.222a.178.178 0 0 1-.046.04.125.125 0 0 1-.074.017.178.178 0 0 1-.08-.023l-.097-.06-.137-.076a1.548 1.548 0 0 0-.43-.132 1.891 1.891 0 0 0-.325-.024 1.76 1.76 0 0 0-.605.1 1.39 1.39 0 0 0-.475.28c-.136.128-.24.28-.308.445a1.5 1.5 0 0 0-.111.587 1.53 1.53 0 0 0 .111.597c.067.164.17.314.303.443.125.12.28.215.453.275.178.064.368.096.561.095.111.001.223-.005.333-.019a1.316 1.316 0 0 0 .72-.306.171.171 0 0 1 .103-.038ZM42.704 48.054a1.81 1.81 0 0 1-.147.737 1.594 1.594 0 0 1-.41.572 1.889 1.889 0 0 1-.645.375 2.655 2.655 0 0 1-1.658 0 1.91 1.91 0 0 1-.64-.377 1.678 1.678 0 0 1-.415-.578 1.922 1.922 0 0 1 0-1.475c.093-.216.234-.413.415-.58.182-.159.4-.282.64-.363a2.61 2.61 0 0 1 1.658 0c.242.085.461.213.643.376.18.165.32.36.412.571.101.238.151.489.147.742Zm-.572 0a1.566 1.566 0 0 0-.104-.593 1.22 1.22 0 0 0-.752-.722 1.918 1.918 0 0 0-1.205 0 1.295 1.295 0 0 0-.461.28 1.191 1.191 0 0 0-.295.443 1.737 1.737 0 0 0 0 1.184 1.209 1.209 0 0 0 .756.72c.388.127.816.127 1.205 0 .175-.061.332-.156.46-.277.131-.129.23-.28.292-.443.073-.19.108-.391.104-.592ZM47.001 48.675l.058.132c.021-.047.04-.09.062-.132a1.23 1.23 0 0 1 .071-.13l1.393-2.201c.028-.038.052-.062.08-.069a.373.373 0 0 1 .114-.012h.412v3.58h-.488V47.1a.938.938 0 0 1 0-.124L47.3 49.208a.203.203 0 0 1-.082.081.246.246 0 0 1-.12.03h-.079a.243.243 0 0 1-.12-.03.2.2 0 0 1-.081-.081l-1.443-2.246V49.835h-.471v-3.572h.411a.373.373 0 0 1 .115.012c.034.015.06.039.076.069l1.423 2.203a.76.76 0 0 1 .071.128ZM52.244 48.497v1.34H51.7v-3.574h1.216c.23-.004.458.023.679.078.176.044.34.12.48.223a.922.922 0 0 1 .272.35c.065.146.096.302.093.458a.993.993 0 0 1-.395.815c-.14.107-.305.188-.483.236a2.3 2.3 0 0 1-.657.083l-.66-.01Zm0-.384h.66c.143.002.286-.017.423-.054a.924.924 0 0 0 .305-.154.686.686 0 0 0 .25-.538.605.605 0 0 0-.054-.291.69.69 0 0 0-.19-.244 1.172 1.172 0 0 0-.734-.192h-.66v1.473ZM59.573 49.842h-.43a.205.205 0 0 1-.12-.033.222.222 0 0 1-.072-.083l-.37-.864h-1.863l-.384.864a.205.205 0 0 1-.19.116h-.432l1.636-3.58h.567l1.658 3.58Zm-2.7-1.329h1.538l-.648-1.457c-.05-.11-.09-.222-.123-.336l-.063.187c-.019.057-.04.11-.06.152l-.643 1.454ZM61.929 46.28c.032.015.06.037.081.063l2.386 2.699v-2.779h.488v3.58h-.272a.265.265 0 0 1-.112-.022.299.299 0 0 1-.088-.066l-2.382-2.696a.974.974 0 0 1 0 .123v2.66h-.488v-3.58h.289c.033 0 .067.006.098.017ZM68.903 48.419v1.421h-.545V48.42l-1.508-2.156h.488a.197.197 0 0 1 .117.03c.03.024.055.051.074.081l.943 1.391c.038.06.071.114.098.166.028.052.05.102.069.151l.07-.154c.027-.056.058-.11.093-.163l.93-1.4a.376.376 0 0 1 .07-.076.182.182 0 0 1 .118-.035h.493l-1.51 2.165ZM46.731 40.256c.237.026.477.047.72.066 3.679-1.43 6.791-3.77 8.948-6.728 2.156-2.958 3.261-6.403 3.177-9.904l-4.054-3.522c.824 3.727.438 7.58-1.114 11.128-1.553 3.548-4.21 6.65-7.677 8.96Z"/><path d="m45.284 40.092.109.02c3.704-2.303 6.527-5.517 8.106-9.228 1.579-3.711 1.84-7.749.75-11.59l-5.775-5.017c2.335 4.124 3.276 8.74 2.71 13.31-.564 4.57-2.61 8.906-5.9 12.505ZM64.868 27.826c-.981 3.847-3.364 7.316-6.794 9.893a21.629 21.629 0 0 1-3.229 2.013c2.794-.713 5.361-1.974 7.505-3.686s3.807-3.829 4.86-6.187l-2.342-2.033Z"/><path d="m63.949 27.26-3.334-2.897c-.064 3.303-1.145 6.531-3.13 9.348-1.986 2.818-4.804 5.122-8.16 6.673h.016c.748 0 1.495-.04 2.238-.116 3.137-1.113 5.909-2.883 8.067-5.153 2.159-2.27 3.637-4.968 4.303-7.855ZM45.766 12.16 41.788 8.7c-3.556 1.194-6.614 3.293-8.775 6.022-2.16 2.73-3.322 5.961-3.333 9.274.013 3.66 1.431 7.212 4.03 10.093 2.597 2.88 6.227 4.927 10.314 5.814 3.648-3.862 5.785-8.634 6.098-13.623.313-4.99-1.213-9.935-4.356-14.12ZM73.14 26.727c-.014-4.342-2.006-8.503-5.54-11.574-3.534-3.07-8.324-4.801-13.322-4.814a21.18 21.18 0 0 0-6.753 1.092L71.88 32.593a14.352 14.352 0 0 0 1.26-5.866Z"/></g><defs><filter id="a" x="-4" y="0" width="114" height="68" filterUnits="userSpaceOnUse" color-interpolation-filters="sRGB"><feFlood flood-opacity="0" result="BackgroundImageFix"/><feColorMatrix in="SourceAlpha" values="0 0 0 0 0 0 0 0 0 0 0 0 0 0 0 0 0 0 127 0" result="hardAlpha"/><feOffset dy="4"/><feGaussianBlur stdDeviation="2"/><feComposite in2="hardAlpha" operator="out"/><feColorMatrix values="0 0 0 0 0 0 0 0 0 0 0 0 0 0 0 0 0 0 0.25 0"/><feBlend in2="BackgroundImageFix" result="effect1_dropShadow_73601_13"/><feBlend in="SourceGraphic" in2="effect1_dropShadow_73601_13" result="shape"/></filter></defs></svg>
